material/.icons/material/power-socket-eu.svg

<svg xmlns="http://www.w3.org/2000/svg" viewBox="0 0 24 24"><path d="M7.5 10.5A1.5 1.5 0 019 12a1.5 1.5 0 01-1.5 1.5c-.84 0-1.5-.67-1.5-1.5a1.5 1.5 0 011.5-1.5m9 0A1.5 1.5 0 0118 12a1.5 1.5 0 01-1.5 1.5A1.5 1.5 0 0115 12a1.5 1.5 0 011.5-1.5M4.22 2h15.56C21 2 22 3 22 4.22v15.56A2.22 2.22 0 0119.78 22H4.22C3 22 2 21 2 19.78V4.22A2.22 2.22 0 014.22 2M12 4a8 8 0 00-8 8 8 8 0 008 8 8 8 0 008-8 8 8 0 00-8-8z"/></svg>

<?xml version="1.0" encoding="UTF-8"?><!DOCTYPE svg PUBLIC "-//W3C//DTD SVG 1.1//EN" "http://www.w3.org/Graphics/SVG/1.1/DTD/svg11.dtd"><svg xmlns="http://www.w3.org/2000/svg" xmlns:xlink="http://www.w3.org/1999/xlink" version="1.1" id="mdi-power-socket-eu" width="24" height="24" viewBox="0 0 24 24"><path d="M7.5,10.5A1.5,1.5 0 0,1 9,12A1.5,1.5 0 0,1 7.5,13.5C6.66,13.5 6,12.83 6,12A1.5,1.5 0 0,1 7.5,10.5M16.5,10.5A1.5,1.5 0 0,1 18,12A1.5,1.5 0 0,1 16.5,13.5A1.5,1.5 0 0,1 15,12A1.5,1.5 0 0,1 16.5,10.5M4.22,2H19.78C21,2 22,3 22,4.22V19.78A2.22,2.22 0 0,1 19.78,22H4.22C3,22 2,21 2,19.78V4.22A2.22,2.22 0 0,1 4.22,2M12,4A8,8 0 0,0 4,12A8,8 0 0,0 12,20A8,8 0 0,0 20,12A8,8 0 0,0 12,4Z" /></svg>
